exports/restaurant-prices-relative-to-retail_v1_850x600.svg

<svg xmlns="http://www.w3.org/2000/svg" version="1.1" style="background-color:#fff;-webkit-font-smoothing:antialiased" width="850" height="600" font-family="'Helvetica Neue',Helvetica,Arial,sans-serif" font-size="18" text-rendering="optimizeLegibility"><g class="ChartTab"><g class="HeaderView"><g opacity=".8" transform="matrix(.27 0 0 .27 778 15)"><a xmlns:xlink="http://www.w3.org/1999/xlink" xlink:href="https://ourworldindata.org" target="_blank"><g><path fill="#1B2543" d="M0 0h211.2v130.1H0z"/><path fill="#E63912" d="M0 112.2h211.2v17.9H0z"/><g><path fill="none" d="M1.2 12.3h210.2v99.2H1.2z"/><path fill="#FFF" d="M37.8 32.2c0 12.7-7.7 19.4-17.1 19.4-9.7 0-16.6-7.5-16.6-18.7 0-11.7 7.3-19.3 17.1-19.3 10.1.1 16.6 7.7 16.6 18.6zm-28.6.6c0 7.9 4.3 14.9 11.8 14.9 7.5 0 11.8-6.9 11.8-15.3 0-7.3-3.8-14.9-11.8-14.9-7.9 0-11.8 7.3-11.8 15.3zM62.7 43.8c0 2.7.1 5.1.2 7.2h-4.3l-.3-4.3h-.1c-1.3 2.1-4 4.9-8.8 4.9-4.2 0-9.1-2.3-9.1-11.6V24.6h4.8v14.6c0 5 1.5 8.4 5.9 8.4 3.2 0 5.5-2.2 6.3-4.4.3-.7.4-1.6.4-2.5V24.6h4.8v19.2zM67.3 32.8c0-3.1-.1-5.8-.2-8.2h4.2l.2 5.2h.2c1.2-3.5 4.1-5.8 7.3-5.8.5 0 .9.1 1.4.2v4.5c-.5-.1-1-.2-1.6-.2-3.4 0-5.8 2.6-6.5 6.2-.1.7-.2 1.4-.2 2.2V51h-4.8V32.8zM95.4 51L86 14.2h5l4.4 18.6c1.1 4.6 2.1 9.2 2.7 12.7h.1c.6-3.7 1.8-8 3-12.8l4.9-18.5h5l4.5 18.7c1 4.4 2 8.7 2.6 12.6h.1c.8-4 1.8-8.1 3-12.7l4.9-18.5h4.9L120.6 51h-5L111 31.9c-1.1-4.7-1.9-8.3-2.4-12h-.1c-.7 3.7-1.5 7.3-2.8 12L100.4 51h-5zM154.9 37.6c0 9.8-6.8 14-13.2 14-7.2 0-12.7-5.2-12.7-13.6 0-8.8 5.8-14 13.1-14 7.7 0 12.8 5.5 12.8 13.6zm-21 .3c0 5.8 3.3 10.1 8 10.1 4.6 0 8-4.3 8-10.3 0-4.5-2.2-10.1-7.9-10.1s-8.1 5.2-8.1 10.3zM158.2 32.8c0-3.1-.1-5.8-.2-8.2h4.2l.2 5.2h.2c1.2-3.5 4.1-5.8 7.3-5.8.5 0 .9.1 1.4.2v4.5c-.5-.1-1-.2-1.6-.2-3.4 0-5.8 2.6-6.5 6.2-.1.7-.2 1.4-.2 2.2V51h-4.8V32.8zM173.5 12.3h4.8V51h-4.8V12.3zM206.5 12.3v31.9c0 2.3.1 5 .2 6.8h-4.3l-.2-4.6h-.2c-1.5 2.9-4.7 5.2-9 5.2-6.4 0-11.3-5.4-11.3-13.4-.1-8.8 5.4-14.2 11.9-14.2 4 0 6.8 1.9 8 4h.1V12.3h4.8zm-4.8 23.1c0-.6-.1-1.4-.2-2a7 7 0 00-6.9-5.6c-5 0-7.9 4.4-7.9 10.2 0 5.3 2.6 9.8 7.8 9.8 3.2 0 6.2-2.1 7.1-5.7.2-.7.2-1.3.2-2.1v-4.6zM42.8 64c.1 1.6-1.1 2.9-3.1 2.9-1.7 0-2.9-1.3-2.9-2.9 0-1.7 1.3-3 3-3 1.9 0 3 1.3 3 3zm-5.4 33.8V71.4h4.8v26.4h-4.8zM47.5 78.6c0-2.7-.1-5-.2-7.1h4.3l.3 4.4h.1c1.3-2.5 4.4-5 8.8-5 3.7 0 9.4 2.2 9.4 11.2v15.8h-4.8V82.6c0-4.3-1.6-7.8-6.1-7.8-3.2 0-5.6 2.2-6.5 4.9-.2.6-.3 1.4-.3 2.2v15.9h-4.8V78.6zM84 61.6c2.9-.4 6.3-.8 10.1-.8 6.8 0 11.7 1.6 14.9 4.6 3.3 3 5.2 7.3 5.2 13.2 0 6-1.9 10.9-5.3 14.3-3.4 3.4-9.1 5.3-16.3 5.3-3.4 0-6.2-.2-8.6-.4V61.6zm4.8 32.5c1.2.2 3 .3 4.8.3 10.2 0 15.7-5.7 15.7-15.6.1-8.7-4.9-14.2-14.9-14.2-2.5 0-4.3.2-5.6.5v29zM132.1 97.8l-.4-3.3h-.2a9.79 9.79 0 01-8.1 3.9c-5.4 0-8.1-3.8-8.1-7.6 0-6.4 5.7-9.9 15.9-9.8v-.5c0-2.2-.6-6.1-6-6.1-2.5 0-5 .8-6.9 2l-1.1-3.2c2.2-1.4 5.4-2.3 8.7-2.3 8.1 0 10.1 5.5 10.1 10.8v9.9c0 2.3.1 4.5.4 6.3h-4.3zm-.7-13.4c-5.3-.1-11.2.8-11.2 5.9 0 3.1 2.1 4.6 4.5 4.6 3.4 0 5.6-2.2 6.4-4.4.2-.5.3-1 .3-1.5v-4.6zM146.6 63.9v7.6h6.9v3.7h-6.9v14.2c0 3.3.9 5.1 3.6 5.1 1.3 0 2.2-.2 2.8-.3l.2 3.6c-.9.4-2.4.7-4.3.7-2.2 0-4-.7-5.2-2-1.4-1.4-1.9-3.8-1.9-6.9V75.1h-4.1v-3.7h4.1v-6.3l4.8-1.2zM171.4 97.8l-.4-3.3h-.2a9.79 9.79 0 01-8.1 3.9c-5.4 0-8.1-3.8-8.1-7.6 0-6.4 5.7-9.9 15.9-9.8v-.5c0-2.2-.6-6.1-6-6.1-2.5 0-5 .8-6.9 2l-1.1-3.2c2.2-1.4 5.4-2.3 8.7-2.3 8.1 0 10.1 5.5 10.1 10.8v9.9c0 2.3.1 4.5.4 6.3h-4.3zm-.7-13.4c-5.3-.1-11.2.8-11.2 5.9 0 3.1 2.1 4.6 4.5 4.6 3.4 0 5.6-2.2 6.4-4.4.2-.5.3-1 .3-1.5v-4.6z"/></g></g></a></g><a href="https://ourworldindata.org/grapher/restaurant-prices-relative-to-retail" target="_blank"><text font-size="27" x="15" y="36.6" fill="#555"><tspan x="15" y="36.6">Restaurant prices relative to retail prices in the United States</tspan></text></a><text font-size="14.4" x="15" y="55.5" fill="#666"><tspan x="15" y="55.52">Restaurant prices of food products relative to grocery retail prices, where grocery retail prices are equal to 100 (i.e.</tspan><tspan x="15" y="71.36">150 would represent a 50% margin on retail prices).</tspan></text></g><g class="LineChart"><defs><clipPath id="a"><path d="M37.22 0h830v925.2h-830z"/></clipPath></defs><g class="AxisBoxView"><g class="HorizontalAxis" fill="#666" text-anchor="middle" font-size="16.2"><text x="47.2" y="556.5">1929</text><text x="134.7" y="556.5">1940</text><text x="293.7" y="556.5">1960</text><text x="452.8" y="556.5">1980</text><text x="611.8" y="556.5">2000</text><text x="723.2" y="556.5">2014</text></g><g class="VerticalAxis" fill="#666" dominant-baseline="middle" text-anchor="end" font-size="16.2"><text x="42.22" y="535.3">0</text><text x="42.22" y="477.9">50</text><text x="42.22" y="420.4">100</text><text x="42.22" y="363">150</text><text x="42.22" y="305.5">200</text><text x="42.22" y="248.1">250</text><text x="42.22" y="190.6">300</text><text x="42.22" y="133.2">350</text></g><g class="AxisGridLines"><path stroke="#ccc" d="M47.22 535.3h675.95"/><path stroke="#ddd" stroke-dasharray="3,2" d="M47.22 477.9h675.95M47.22 420.4h675.95M47.22 363h675.95M47.22 305.5h675.95M47.22 248.1h675.95M47.22 190.6h675.95M47.22 133.2h675.95"/></g><g class="AxisGridLines" stroke="#ddd" stroke-dasharray="3,2"><path d="M134.7 535.3V93.9M293.7 535.3V93.9M452.8 535.3V93.9M611.8 535.3V93.9"/></g></g><g clip-path="url(#a)"><g class="HeightedLegend clickable"><g class="legendMark"><path fill="#3360a9" d="M733.17 92.65h10v2.5h-10z"/><text font-size="14.4" x="748.2" y="98.2" fill="#333"><tspan x="748.17" y="98.22">United States</tspan></text></g></g><g class="Lines"><g class="key-United-States_0"><path stroke="#3360a9" stroke-linecap="round" d="M47 393h80l71-4 48-3 8-4 8-3h8l8 2 8-8 8-3 8-2 8-4 8-1 8-2 8 1h8l7-9 8-3 8-3 8-4 8-5 8 1 8 14 8 3 8-1 8-7 8-5 8 3h8l8-2 8-3 8-3 8-5 8-1 8-4 8-2 8 2 7-9 8-10 8-10 8-8 8-5 8-5 8-4 8-6 8-6 8-8 8-7 8-7 8-7 8-9 8-8 8-7 8-9 8-11 8-10 8-13 8-16 7-14 8-5 8-9 8-12 8-9 8-10" fill="none" stroke-width="1.5"/><g fill="#3360a9"><circle cx="47" cy="393" r="2"/><circle cx="127" cy="393" r="2"/><circle cx="198" cy="389" r="2"/><circle cx="246" cy="386" r="2"/><circle cx="254" cy="382" r="2"/><circle cx="262" cy="379" r="2"/><circle cx="270" cy="379" r="2"/><circle cx="278" cy="381" r="2"/><circle cx="286" cy="373" r="2"/><circle cx="294" cy="370" r="2"/><circle cx="302" cy="368" r="2"/><circle cx="310" cy="364" r="2"/><circle cx="318" cy="363" r="2"/><circle cx="326" cy="361" r="2"/><circle cx="334" cy="362" r="2"/><circle cx="342" cy="362" r="2"/><circle cx="349" cy="353" r="2"/><circle cx="357" cy="350" r="2"/><circle cx="365" cy="347" r="2"/><circle cx="373" cy="343" r="2"/><circle cx="381" cy="338" r="2"/><circle cx="389" cy="339" r="2"/><circle cx="397" cy="353" r="2"/><circle cx="405" cy="356" r="2"/><circle cx="413" cy="355" r="2"/><circle cx="421" cy="348" r="2"/><circle cx="429" cy="343" r="2"/><circle cx="437" cy="346" r="2"/><circle cx="445" cy="346" r="2"/><circle cx="453" cy="344" r="2"/><circle cx="461" cy="341" r="2"/><circle cx="469" cy="338" r="2"/><circle cx="477" cy="333" r="2"/><circle cx="485" cy="332" r="2"/><circle cx="493" cy="328" r="2"/><circle cx="501" cy="326" r="2"/><circle cx="509" cy="328" r="2"/><circle cx="516" cy="319" r="2"/><circle cx="524" cy="309" r="2"/><circle cx="532" cy="299" r="2"/><circle cx="540" cy="291" r="2"/><circle cx="548" cy="286" r="2"/><circle cx="556" cy="281" r="2"/><circle cx="564" cy="277" r="2"/><circle cx="572" cy="271" r="2"/><circle cx="580" cy="265" r="2"/><circle cx="588" cy="257" r="2"/><circle cx="596" cy="250" r="2"/><circle cx="604" cy="243" r="2"/><circle cx="612" cy="236" r="2"/><circle cx="620" cy="227" r="2"/><circle cx="628" cy="219" r="2"/><circle cx="636" cy="212" r="2"/><circle cx="644" cy="203" r="2"/><circle cx="652" cy="192" r="2"/><circle cx="660" cy="182" r="2"/><circle cx="668" cy="169" r="2"/><circle cx="676" cy="153" r="2"/><circle cx="683" cy="139" r="2"/><circle cx="691" cy="134" r="2"/><circle cx="699" cy="125" r="2"/><circle cx="707" cy="113" r="2"/><circle cx="715" cy="104" r="2"/><circle cx="723" cy="94" r="2"/></g></g></g></g></g><g class="SourcesFooter" fill="#777"><g class="clickable" fill="#777"><text font-size="12.6" x="15" y="581.6"><tspan x="15" y="581.58">Source: United States Department of Agriculture (USDA)</tspan></text></g><text font-size="12.6" x="649" y="581.6"><tspan x="649.02" y="581.58"><a target="_blank" href="https://ourworldindata.org" fill="#777">OurWorldInData.org</a> • <a href="http://creativecommons.org/licenses/by-sa/4.0/deed.en_US" target="_blank" fill="#777">CC BY-SA</a></tspan></text></g></g></svg>

<svg xmlns="http://www.w3.org/2000/svg" version="1.1" style="font-family: 'Helvetica Neue', Helvetica, Arial, sans-serif; font-size: 18px; background-color: white; text-rendering: optimizeLegibility; -webkit-font-smoothing: antialiased;" width="850" height="600"><g class="ChartTab"><g class="HeaderView"><g opacity="0.8" transform="translate(778, 15) scale(0.27)"><a xmlns:xlink="http://www.w3.org/1999/xlink" xlink:href="https://ourworldindata.org" target="_blank"><g><rect x="0" y="0" fill="#1B2543" width="211.2" height="130.1"/><rect x="0" y="112.2" fill="#E63912" width="211.2" height="17.9"/><g><rect x="1.2" y="12.3" fill="none" width="210.2" height="99.2"/><path fill="#FFFFFF" d="M37.8,32.2c0,12.7-7.7,19.4-17.1,19.4c-9.7,0-16.6-7.5-16.6-18.7c0-11.7,7.3-19.3,17.1-19.3 C31.3,13.7,37.8,21.3,37.8,32.2z M9.2,32.8c0,7.9,4.3,14.9,11.8,14.9c7.5,0,11.8-6.9,11.8-15.3c0-7.3-3.8-14.9-11.8-14.9 C13.1,17.5,9.2,24.8,9.2,32.8z"/><path fill="#FFFFFF" d="M62.7,43.8c0,2.7,0.1,5.1,0.2,7.2h-4.3l-0.3-4.3h-0.1c-1.3,2.1-4,4.9-8.8,4.9c-4.2,0-9.1-2.3-9.1-11.6 V24.6h4.8v14.6c0,5,1.5,8.4,5.9,8.4c3.2,0,5.5-2.2,6.3-4.4c0.3-0.7,0.4-1.6,0.4-2.5V24.6h4.8V43.8z"/><path fill="#FFFFFF" d="M67.3,32.8c0-3.1-0.1-5.8-0.2-8.2h4.2l0.2,5.2h0.2c1.2-3.5,4.1-5.8,7.3-5.8c0.5,0,0.9,0.1,1.4,0.2v4.5 c-0.5-0.1-1-0.2-1.6-0.2c-3.4,0-5.8,2.6-6.5,6.2c-0.1,0.7-0.2,1.4-0.2,2.2V51h-4.8V32.8z"/><path fill="#FFFFFF" d="M95.4,51l-9.4-36.8h5l4.4,18.6c1.1,4.6,2.1,9.2,2.7,12.7h0.1c0.6-3.7,1.8-8,3-12.8l4.9-18.5h5l4.5,18.7 c1,4.4,2,8.7,2.6,12.6h0.1c0.8-4,1.8-8.1,3-12.7l4.9-18.5h4.9L120.6,51h-5L111,31.9c-1.1-4.7-1.9-8.3-2.4-12h-0.1 c-0.7,3.7-1.5,7.3-2.8,12L100.4,51H95.4z"/><path fill="#FFFFFF" d="M154.9,37.6c0,9.8-6.8,14-13.2,14c-7.2,0-12.7-5.2-12.7-13.6c0-8.8,5.8-14,13.1-14 C149.8,24,154.9,29.5,154.9,37.6z M133.9,37.9c0,5.8,3.3,10.1,8,10.1c4.6,0,8-4.3,8-10.3c0-4.5-2.2-10.1-7.9-10.1 C136.3,27.6,133.9,32.8,133.9,37.9z"/><path fill="#FFFFFF" d="M158.2,32.8c0-3.1-0.1-5.8-0.2-8.2h4.2l0.2,5.2h0.2c1.2-3.5,4.1-5.8,7.3-5.8c0.5,0,0.9,0.1,1.4,0.2v4.5 c-0.5-0.1-1-0.2-1.6-0.2c-3.4,0-5.8,2.6-6.5,6.2c-0.1,0.7-0.2,1.4-0.2,2.2V51h-4.8V32.8z"/><path fill="#FFFFFF" d="M173.5,12.3h4.8V51h-4.8V12.3z"/><path fill="#FFFFFF" d="M206.5,12.3v31.9c0,2.3,0.1,5,0.2,6.8h-4.3l-0.2-4.6H202c-1.5,2.9-4.7,5.2-9,5.2 c-6.4,0-11.3-5.4-11.3-13.4c-0.1-8.8,5.4-14.2,11.9-14.2c4,0,6.8,1.9,8,4h0.1V12.3H206.5z M201.7,35.4c0-0.6-0.1-1.4-0.2-2 c-0.7-3.1-3.3-5.6-6.9-5.6c-5,0-7.9,4.4-7.9,10.2c0,5.3,2.6,9.8,7.8,9.8c3.2,0,6.2-2.1,7.1-5.7c0.2-0.7,0.2-1.3,0.2-2.1V35.4z"/><path fill="#FFFFFF" d="M42.8,64c0.1,1.6-1.1,2.9-3.1,2.9c-1.7,0-2.9-1.3-2.9-2.9c0-1.7,1.3-3,3-3C41.7,61,42.8,62.3,42.8,64z M37.4,97.8V71.4h4.8v26.4H37.4z"/><path fill="#FFFFFF" d="M47.5,78.6c0-2.7-0.1-5-0.2-7.1h4.3l0.3,4.4h0.1c1.3-2.5,4.4-5,8.8-5c3.7,0,9.4,2.2,9.4,11.2v15.8h-4.8 V82.6c0-4.3-1.6-7.8-6.1-7.8c-3.2,0-5.6,2.2-6.5,4.9c-0.2,0.6-0.3,1.4-0.3,2.2v15.9h-4.8V78.6z"/><path fill="#FFFFFF" d="M84,61.6c2.9-0.4,6.3-0.8,10.1-0.8c6.8,0,11.7,1.6,14.9,4.6c3.3,3,5.2,7.3,5.2,13.2c0,6-1.9,10.9-5.3,14.3 c-3.4,3.4-9.1,5.3-16.3,5.3c-3.4,0-6.2-0.2-8.6-0.4V61.6z M88.8,94.1c1.2,0.2,3,0.3,4.8,0.3c10.2,0,15.7-5.7,15.7-15.6 c0.1-8.7-4.9-14.2-14.9-14.2c-2.5,0-4.3,0.2-5.6,0.5V94.1z"/><path fill="#FFFFFF" d="M132.1,97.8l-0.4-3.3h-0.2c-1.5,2.1-4.3,3.9-8.1,3.9c-5.4,0-8.1-3.8-8.1-7.6c0-6.4,5.7-9.9,15.9-9.8v-0.5 c0-2.2-0.6-6.1-6-6.1c-2.5,0-5,0.8-6.9,2l-1.1-3.2c2.2-1.4,5.4-2.3,8.7-2.3c8.1,0,10.1,5.5,10.1,10.8v9.9c0,2.3,0.1,4.5,0.4,6.3 H132.1z M131.4,84.4c-5.3-0.1-11.2,0.8-11.2,5.9c0,3.1,2.1,4.6,4.5,4.6c3.4,0,5.6-2.2,6.4-4.4c0.2-0.5,0.3-1,0.3-1.5V84.4z"/><path fill="#FFFFFF" d="M146.6,63.9v7.6h6.9v3.7h-6.9v14.2c0,3.3,0.9,5.1,3.6,5.1c1.3,0,2.2-0.2,2.8-0.3l0.2,3.6 c-0.9,0.4-2.4,0.7-4.3,0.7c-2.2,0-4-0.7-5.2-2c-1.4-1.4-1.9-3.8-1.9-6.9V75.1h-4.1v-3.7h4.1v-6.3L146.6,63.9z"/><path fill="#FFFFFF" d="M171.4,97.8l-0.4-3.3h-0.2c-1.5,2.1-4.3,3.9-8.1,3.9c-5.4,0-8.1-3.8-8.1-7.6c0-6.4,5.7-9.9,15.9-9.8v-0.5 c0-2.2-0.6-6.1-6-6.1c-2.5,0-5,0.8-6.9,2l-1.1-3.2c2.2-1.4,5.4-2.3,8.7-2.3c8.1,0,10.1,5.5,10.1,10.8v9.9c0,2.3,0.1,4.5,0.4,6.3 H171.4z M170.7,84.4c-5.3-0.1-11.2,0.8-11.2,5.9c0,3.1,2.1,4.6,4.5,4.6c3.4,0,5.6-2.2,6.4-4.4c0.2-0.5,0.3-1,0.3-1.5V84.4z"/></g></g></a></g><a href="https://ourworldindata.org/grapher/restaurant-prices-relative-to-retail" target="_blank"><text font-size="27.00" x="15.0" y="36.6" fill="#555"><tspan x="15" y="36.6">Restaurant prices relative to retail prices in the United States</tspan></text></a><text font-size="14.40" x="15.0" y="55.5" fill="#666"><tspan x="15" y="55.519999999999996">Restaurant prices of food products relative to grocery retail prices, where grocery retail prices are equal to 100 (i.e.</tspan><tspan x="15" y="71.36">150 would represent a 50% margin on retail prices).</tspan></text></g><g class="LineChart"><defs><clipPath id="boundsClip-1"><rect x="37.216" y="0" width="830" height="925.2"></rect></clipPath></defs><g class="AxisBoxView"><g class="HorizontalAxis"><text x="47.2" y="556.5" fill="#666" text-anchor="middle" font-size="16.2">1929</text><text x="134.7" y="556.5" fill="#666" text-anchor="middle" font-size="16.2">1940</text><text x="293.7" y="556.5" fill="#666" text-anchor="middle" font-size="16.2">1960</text><text x="452.8" y="556.5" fill="#666" text-anchor="middle" font-size="16.2">1980</text><text x="611.8" y="556.5" fill="#666" text-anchor="middle" font-size="16.2">2000</text><text x="723.2" y="556.5" fill="#666" text-anchor="middle" font-size="16.2">2014</text></g><g class="VerticalAxis"><text x="42.22" y="535.3" fill="#666" dominant-baseline="middle" text-anchor="end" font-size="16.2">0</text><text x="42.22" y="477.9" fill="#666" dominant-baseline="middle" text-anchor="end" font-size="16.2">50</text><text x="42.22" y="420.4" fill="#666" dominant-baseline="middle" text-anchor="end" font-size="16.2">100</text><text x="42.22" y="363" fill="#666" dominant-baseline="middle" text-anchor="end" font-size="16.2">150</text><text x="42.22" y="305.5" fill="#666" dominant-baseline="middle" text-anchor="end" font-size="16.2">200</text><text x="42.22" y="248.1" fill="#666" dominant-baseline="middle" text-anchor="end" font-size="16.2">250</text><text x="42.22" y="190.6" fill="#666" dominant-baseline="middle" text-anchor="end" font-size="16.2">300</text><text x="42.22" y="133.2" fill="#666" dominant-baseline="middle" text-anchor="end" font-size="16.2">350</text></g><g class="AxisGridLines"><line x1="47.22" y1="535.3" x2="723.17" y2="535.3" stroke="#ccc"></line><line x1="47.22" y1="477.9" x2="723.17" y2="477.9" stroke="#ddd" stroke-dasharray="3,2"></line><line x1="47.22" y1="420.4" x2="723.17" y2="420.4" stroke="#ddd" stroke-dasharray="3,2"></line><line x1="47.22" y1="363" x2="723.17" y2="363" stroke="#ddd" stroke-dasharray="3,2"></line><line x1="47.22" y1="305.5" x2="723.17" y2="305.5" stroke="#ddd" stroke-dasharray="3,2"></line><line x1="47.22" y1="248.1" x2="723.17" y2="248.1" stroke="#ddd" stroke-dasharray="3,2"></line><line x1="47.22" y1="190.6" x2="723.17" y2="190.6" stroke="#ddd" stroke-dasharray="3,2"></line><line x1="47.22" y1="133.2" x2="723.17" y2="133.2" stroke="#ddd" stroke-dasharray="3,2"></line></g><g class="AxisGridLines"><line x1="134.7" y1="535.30" x2="134.7" y2="93.90" stroke="#ddd" stroke-dasharray="3,2"></line><line x1="293.7" y1="535.30" x2="293.7" y2="93.90" stroke="#ddd" stroke-dasharray="3,2"></line><line x1="452.8" y1="535.30" x2="452.8" y2="93.90" stroke="#ddd" stroke-dasharray="3,2"></line><line x1="611.8" y1="535.30" x2="611.8" y2="93.90" stroke="#ddd" stroke-dasharray="3,2"></line></g></g><g clip-path="url(#boundsClip-1)"><g class="HeightedLegend clickable"><g class="legendMark"><rect x="733.168" y="86.7" width="101.83200000000001" height="14.4" fill="#fff" opacity="0"></rect><rect x="733.168" y="92.65" width="10" height="2.5" fill="#3360a9"></rect><text font-size="14.40" x="748.2" y="98.2" fill="#333"><tspan x="748.168" y="98.22000000000001">United States</tspan></text></g></g><g class="Lines"><rect x="47" y="94" width="676" height="441" fill="rgba(255,255,255,0)" opacity="0"></rect><g class="key-United-States_0"><path stroke="#3360a9" stroke-linecap="round" d="M47 393L127 393L198 389L246 386L254 382L262 379L270 379L278 381L286 373L294 370L302 368L310 364L318 363L326 361L334 362L342 362L349 353L357 350L365 347L373 343L381 338L389 339L397 353L405 356L413 355L421 348L429 343L437 346L445 346L453 344L461 341L469 338L477 333L485 332L493 328L501 326L509 328L516 319L524 309L532 299L540 291L548 286L556 281L564 277L572 271L580 265L588 257L596 250L604 243L612 236L620 227L628 219L636 212L644 203L652 192L660 182L668 169L676 153L683 139L691 134L699 125L707 113L715 104L723 94" fill="none" stroke-width="1.5"></path><g fill="#3360a9"><circle cx="47" cy="393" r="2"></circle><circle cx="127" cy="393" r="2"></circle><circle cx="198" cy="389" r="2"></circle><circle cx="246" cy="386" r="2"></circle><circle cx="254" cy="382" r="2"></circle><circle cx="262" cy="379" r="2"></circle><circle cx="270" cy="379" r="2"></circle><circle cx="278" cy="381" r="2"></circle><circle cx="286" cy="373" r="2"></circle><circle cx="294" cy="370" r="2"></circle><circle cx="302" cy="368" r="2"></circle><circle cx="310" cy="364" r="2"></circle><circle cx="318" cy="363" r="2"></circle><circle cx="326" cy="361" r="2"></circle><circle cx="334" cy="362" r="2"></circle><circle cx="342" cy="362" r="2"></circle><circle cx="349" cy="353" r="2"></circle><circle cx="357" cy="350" r="2"></circle><circle cx="365" cy="347" r="2"></circle><circle cx="373" cy="343" r="2"></circle><circle cx="381" cy="338" r="2"></circle><circle cx="389" cy="339" r="2"></circle><circle cx="397" cy="353" r="2"></circle><circle cx="405" cy="356" r="2"></circle><circle cx="413" cy="355" r="2"></circle><circle cx="421" cy="348" r="2"></circle><circle cx="429" cy="343" r="2"></circle><circle cx="437" cy="346" r="2"></circle><circle cx="445" cy="346" r="2"></circle><circle cx="453" cy="344" r="2"></circle><circle cx="461" cy="341" r="2"></circle><circle cx="469" cy="338" r="2"></circle><circle cx="477" cy="333" r="2"></circle><circle cx="485" cy="332" r="2"></circle><circle cx="493" cy="328" r="2"></circle><circle cx="501" cy="326" r="2"></circle><circle cx="509" cy="328" r="2"></circle><circle cx="516" cy="319" r="2"></circle><circle cx="524" cy="309" r="2"></circle><circle cx="532" cy="299" r="2"></circle><circle cx="540" cy="291" r="2"></circle><circle cx="548" cy="286" r="2"></circle><circle cx="556" cy="281" r="2"></circle><circle cx="564" cy="277" r="2"></circle><circle cx="572" cy="271" r="2"></circle><circle cx="580" cy="265" r="2"></circle><circle cx="588" cy="257" r="2"></circle><circle cx="596" cy="250" r="2"></circle><circle cx="604" cy="243" r="2"></circle><circle cx="612" cy="236" r="2"></circle><circle cx="620" cy="227" r="2"></circle><circle cx="628" cy="219" r="2"></circle><circle cx="636" cy="212" r="2"></circle><circle cx="644" cy="203" r="2"></circle><circle cx="652" cy="192" r="2"></circle><circle cx="660" cy="182" r="2"></circle><circle cx="668" cy="169" r="2"></circle><circle cx="676" cy="153" r="2"></circle><circle cx="683" cy="139" r="2"></circle><circle cx="691" cy="134" r="2"></circle><circle cx="699" cy="125" r="2"></circle><circle cx="707" cy="113" r="2"></circle><circle cx="715" cy="104" r="2"></circle><circle cx="723" cy="94" r="2"></circle></g></g></g></g></g><g style="fill: #777;" class="SourcesFooter"><g style="fill: #777;" class="clickable"><text font-size="12.60" x="15.0" y="581.6"><tspan x="15" y="581.58">Source: United States Department of Agriculture (USDA)</tspan></text></g><text font-size="12.60" x="649.0" y="581.6"><tspan x="649.024" y="581.58"><a target='_blank' style='fill: #777;' href='https://ourworldindata.org'>OurWorldInData.org</a> • <a style="fill: #777;" href="http://creativecommons.org/licenses/by-sa/4.0/deed.en_US" target="_blank">CC BY-SA</a></tspan></text></g></g></svg>
